Numix-GalliumOS/48/notifications/notification-audio-volume-muted.svg

<?xml version="1.0" encoding="UTF-8" standalone="no"?>
<svg
   xmlns:dc="http://purl.org/dc/elements/1.1/"
   xmlns:cc="http://creativecommons.org/ns#"
   xmlns:rdf="http://www.w3.org/1999/02/22-rdf-syntax-ns#"
   xmlns:svg="http://www.w3.org/2000/svg"
   xmlns="http://www.w3.org/2000/svg"
   xmlns:sodipodi="http://sodipodi.sourceforge.net/DTD/sodipodi-0.dtd"
   xmlns:inkscape="http://www.inkscape.org/namespaces/inkscape"
   width="48"
   viewBox="0 0 48 48"
   height="48"
   id="svg2"
   version="1.1"
   inkscape:version="0.91 r"
   sodipodi:docname="notification-audio-volume-muted.svg">
  <metadata
     id="metadata46">
    <rdf:RDF>
      <cc:Work
         rdf:about="">
        <dc:format>image/svg+xml</dc:format>
        <dc:type
           rdf:resource="http://purl.org/dc/dcmitype/StillImage" />
        <dc:title></dc:title>
      </cc:Work>
    </rdf:RDF>
  </metadata>
  <sodipodi:namedview
     pagecolor="#ffffff"
     bordercolor="#666666"
     borderopacity="1"
     objecttolerance="10"
     gridtolerance="10"
     guidetolerance="10"
     inkscape:pageopacity="0"
     inkscape:pageshadow="2"
     inkscape:window-width="1366"
     inkscape:window-height="747"
     id="namedview44"
     showgrid="true"
     inkscape:zoom="9.158428"
     inkscape:cx="31.859464"
     inkscape:cy="20.230617"
     inkscape:window-x="0"
     inkscape:window-y="21"
     inkscape:window-maximized="1"
     inkscape:current-layer="svg2">
    <inkscape:grid
       type="xygrid"
       id="grid3023" />
  </sodipodi:namedview>
  <defs
     id="defs4">
    <clipPath
       id="clipPath6">
      <rect
         height="6.375"
         width="3.825"
         y="220.75"
         x="26.85"
         id="rect8"
         style="color:#bebebe;fill:#bebebe" />
    </clipPath>
    <clipPath
       id="clipPath10">
      <rect
         height="5.2160001"
         width="2.898"
         y="221.33"
         x="26.966"
         id="rect12"
         style="color:#bebebe;fill:#bebebe" />
    </clipPath>
    <clipPath
       id="clipPath14">
      <rect
         height="4.8740001"
         width="1.876"
         y="221.5"
         x="26.999001"
         id="rect16"
         style="color:#bebebe;fill:#bebebe" />
    </clipPath>
    <clipPath
       id="clipPath3077">
      <rect
         id="rect3079"
         x="26.999001"
         y="221.5"
         width="1.876"
         height="4.8740001"
         style="color:#bebebe;fill:#bebebe" />
    </clipPath>
    <clipPath
       id="clipPath3073">
      <rect
         id="rect3075"
         x="26.966"
         y="221.33"
         width="2.898"
         height="5.2160001"
         style="color:#bebebe;fill:#bebebe" />
    </clipPath>
    <clipPath
       id="clipPath3069">
      <rect
         id="rect3071"
         x="26.85"
         y="220.75"
         width="3.825"
         height="6.375"
         style="color:#bebebe;fill:#bebebe" />
    </clipPath>
  </defs>
  <g
     id="g4153"
     transform="matrix(2.1875,0,0,2.1875,-2.5234375,-56.9375)">
    <g
       transform="translate(1.1241102,26)"
       id="g38">
      <path
         d="m 8,5 -3.0026695,3 0,6 L 8,17 8,13 10,11 8,9 Z"
         id="path40"
         inkscape:connector-curvature="0"
         style="fill:#ececec"
         sodipodi:nodetypes="cccccccc" />
      <path
         d="M 2,8 C 1.4769561,8 1.0008898,8.4981434 1.0008898,9 l 0,4 c 0,0.579702 0.432648,1 0.9991102,1 l 3.9964407,0 0,-6 z"
         id="path42"
         inkscape:connector-curvature="0"
         style="fill:#ececec"
         sodipodi:nodetypes="ssssccs" />
    </g>
    <path
       id="path3085"
       d="M 13.616418,32 12.12411,33.492308 15.631803,37 12.12411,40.507692 13.616418,42 17.12411,38.492308 20.631803,42 22.12411,40.507692 18.616418,37 22.12411,33.492308 20.631803,32 17.12411,35.507691 Z"
       inkscape:connector-curvature="0"
       style="color:#000000;opacity:0.5;fill:#ececec" />
  </g>
</svg>

<svg xmlns="http://www.w3.org/2000/svg" viewBox="0 0 48 48">
 <g transform="matrix(2.1875,0,0,2.1875,-2.5234375,-56.9375)">
  <g transform="translate(1.1241102,26)">
   <path d="m 8 5 -3 3 0 6 l 3 3 0 -4 2 -2 -2 -2" style="fill:#ececec"/>
   <path d="m 2 8 c -0.523 0 -0.999 0.498 -0.999 1 l 0 4 c 0 0.58 0.433 1 0.999 1 l 3.996 0 0 -6 z" style="fill:#ececec"/>
  </g>
  <path d="m 13.616 32 -1.492 1.492 3.508 3.508 -3.508 3.508 1.492 1.492 3.508 -3.508 3.508 3.508 1.492 -1.492 -3.508 -3.508 3.508 -3.508 -1.492 -1.492 -3.508 3.508" style="fill:#ececec;opacity:0.5;color:#000"/>
 </g>
</svg>
